!!!OTL: JETZT KOMMT DIE ZEIT
!!!ARE: Europa, Mitteleuropa, Deutschland, Brandenburg; Sachsen
!!!SCT: E0537A
!!!YEM: Copyright 1995, estate of Helmut Schaffrath.
**kern
*ICvox
*Ivox
*M4/4
*k[f#]
*G:
{4d
=1
4g
4g
4b
8dd
8b
=2
4.a
8f#
4d}
{4d
=3
4g
4g
4b
8b
8dd
=4
2a
4r}
{8a
8b
=5
4cc
4ee
4cc
4a
=6
4b
4dd
4b}
{8g
8b
=7
4a
4cc
4a
4f#
=8
2g
4r}
==
!!!AGN: Liebes - Lied
!!!ONB: ESAC (Essen Associative Code) Database: ERK1
!!!AMT: simple quadruple
!!!AIN: vox
!!!EED: Helmut Schaffrath
!!!EEV: 1.0
*-
